www/assets/icons/no_backpack.svg

<svg width="24" height="24" viewBox="0 0 24 24" xmlns="http://www.w3.org/2000/svg" fill='currentColor'><path d="M21.9 20.8848L3.51998 2.50482L2.09998 3.91482L4.85998 6.67482C4.76998 7.00482 4.70998 7.33482 4.70998 7.69482V19.6948C4.70998 20.7948 5.60998 21.6948 6.70998 21.6948H18.71C19.05 21.6948 19.36 21.6048 19.64 21.4548L20.49 22.3048L21.9 20.8848ZM6.70998 13.6948V11.6948H9.87998L11.88 13.6948H6.70998ZM15.54 11.6948L7.68998 3.84482C7.69998 3.84482 7.69998 3.83482 7.70998 3.83482V1.69482H10.71V3.69482H14.71V1.69482H17.71V3.83482C19.43 4.28482 20.71 5.83482 20.71 7.69482V16.8648L18.71 14.8648V11.6948H15.54Z"/></svg>

<svg xmlns="http://www.w3.org/2000/svg" width="24" height="24" viewBox="0 0 24 24" fill='currentColor'><path d="M21.9 20.885 3.52 2.505 2.1 3.915l2.76 2.76c-.09.33-.15.66-.15 1.02v12c0 1.1.9 2 2 2h12c.34 0 .65-.09.93-.24l.85.85zm-15.19-7.19v-2h3.17l2 2zm8.83-2-7.85-7.85c.01 0 .01-.01.02-.01v-2.14h3v2h4v-2h3v2.14c1.72.45 3 2 3 3.86v9.17l-2-2v-3.17z"/></svg>
